X: 6
T: This Is My Love, Do You Like Her?
R: jig
M: 6/8
L: 1/8
K: Ador
|: ABc AGE | c2 B c2 d | efg edB | g2 g gfg |
eaf g/a/ge | d/e/dB G2 A | B/c/Be dBG |[1 A2 B c/d/cB :|[2 ABA ABd ||
|: e2 a age | dgg gfg | eab age- | egg gfg |
eae g/a/ge | d/e/dB G2 A | B/c/Be dBG |[1 ABA ABd :|[2 A2 B c2 B |]


Tune 6	Setting 8734

